X: 1
T: Paddy Shannon's
M: 4/4
L: 1/8
R: reel
K: Gmaj
|:e|dg2e dGBG|F2DE FGAc|dg2e dGBG|DCB,C DGG2|
dg2e dGBG|F2DE FGAc|d2de fdef|defd g3:|
|:G|DGG2 AGFG|ABcA d3e|=fedc BGFG|AG=FD DCB,C|
DE=FE DGG2|AGG2 ABcA|d3e =fedc|AGGF G3:|
